material/.icons/material/shoe-heel.svg

<svg xmlns="http://www.w3.org/2000/svg" viewBox="0 0 24 24"><path d="M3 18h8.7l5.3-4h1v4h2v-4s1-2 1-4-.5-4-.5-4h-2L18 7l-8 7H8l-5 2v2z"/></svg>

<?xml version="1.0" encoding="UTF-8"?><!DOCTYPE svg PUBLIC "-//W3C//DTD SVG 1.1//EN" "http://www.w3.org/Graphics/SVG/1.1/DTD/svg11.dtd"><svg xmlns="http://www.w3.org/2000/svg" xmlns:xlink="http://www.w3.org/1999/xlink" version="1.1" id="mdi-shoe-heel" width="24" height="24" viewBox="0 0 24 24"><path d="M3,18H11.7L17,14H18V18H20V14C20,14 21,12 21,10C21,8 20.5,6 20.5,6H18.5L18,7L10,14H8L3,16V18Z" /></svg>
